images/time.svg

<svg width="21" height="21" viewBox="0 0 21 21" fill="none" xmlns="http://www.w3.org/2000/svg">
<path d="M14.4375 8.53125C14.4375 8.3572 14.5066 8.19028 14.6297 8.06721C14.7528 7.94414 14.9197 7.875 15.0938 7.875H16.4062C16.5803 7.875 16.7472 7.94414 16.8703 8.06721C16.9934 8.19028 17.0625 8.3572 17.0625 8.53125V9.84375C17.0625 10.0178 16.9934 10.1847 16.8703 10.3078C16.7472 10.4309 16.5803 10.5 16.4062 10.5H15.0938C14.9197 10.5 14.7528 10.4309 14.6297 10.3078C14.5066 10.1847 14.4375 10.0178 14.4375 9.84375V8.53125ZM10.5 8.53125C10.5 8.3572 10.5691 8.19028 10.6922 8.06721C10.8153 7.94414 10.9822 7.875 11.1562 7.875H12.4688C12.6428 7.875 12.8097 7.94414 12.9328 8.06721C13.0559 8.19028 13.125 8.3572 13.125 8.53125V9.84375C13.125 10.0178 13.0559 10.1847 12.9328 10.3078C12.8097 10.4309 12.6428 10.5 12.4688 10.5H11.1562C10.9822 10.5 10.8153 10.4309 10.6922 10.3078C10.5691 10.1847 10.5 10.0178 10.5 9.84375V8.53125ZM3.9375 12.4688C3.9375 12.2947 4.00664 12.1278 4.12971 12.0047C4.25278 11.8816 4.4197 11.8125 4.59375 11.8125H5.90625C6.0803 11.8125 6.24722 11.8816 6.37029 12.0047C6.49336 12.1278 6.5625 12.2947 6.5625 12.4688V13.7812C6.5625 13.9553 6.49336 14.1222 6.37029 14.2453C6.24722 14.3684 6.0803 14.4375 5.90625 14.4375H4.59375C4.4197 14.4375 4.25278 14.3684 4.12971 14.2453C4.00664 14.1222 3.9375 13.9553 3.9375 13.7812V12.4688ZM7.875 12.4688C7.875 12.2947 7.94414 12.1278 8.06721 12.0047C8.19028 11.8816 8.3572 11.8125 8.53125 11.8125H9.84375C10.0178 11.8125 10.1847 11.8816 10.3078 12.0047C10.4309 12.1278 10.5 12.2947 10.5 12.4688V13.7812C10.5 13.9553 10.4309 14.1222 10.3078 14.2453C10.1847 14.3684 10.0178 14.4375 9.84375 14.4375H8.53125C8.3572 14.4375 8.19028 14.3684 8.06721 14.2453C7.94414 14.1222 7.875 13.9553 7.875 13.7812V12.4688Z" fill="#010066"/>
<path d="M4.59375 0C4.7678 0 4.93472 0.0691404 5.05779 0.192211C5.18086 0.315282 5.25 0.482202 5.25 0.65625V1.3125H15.75V0.65625C15.75 0.482202 15.8191 0.315282 15.9422 0.192211C16.0653 0.0691404 16.2322 0 16.4062 0C16.5803 0 16.7472 0.0691404 16.8703 0.192211C16.9934 0.315282 17.0625 0.482202 17.0625 0.65625V1.3125H18.375C19.0712 1.3125 19.7389 1.58906 20.2312 2.08134C20.7234 2.57363 21 3.24131 21 3.9375V18.375C21 19.0712 20.7234 19.7389 20.2312 20.2312C19.7389 20.7234 19.0712 21 18.375 21H2.625C1.92881 21 1.26113 20.7234 0.768845 20.2312C0.276562 19.7389 0 19.0712 0 18.375V3.9375C0 3.24131 0.276562 2.57363 0.768845 2.08134C1.26113 1.58906 1.92881 1.3125 2.625 1.3125H3.9375V0.65625C3.9375 0.482202 4.00664 0.315282 4.12971 0.192211C4.25278 0.0691404 4.4197 0 4.59375 0V0ZM1.3125 5.25V18.375C1.3125 18.7231 1.45078 19.0569 1.69692 19.3031C1.94306 19.5492 2.2769 19.6875 2.625 19.6875H18.375C18.7231 19.6875 19.0569 19.5492 19.3031 19.3031C19.5492 19.0569 19.6875 18.7231 19.6875 18.375V5.25H1.3125Z" fill="#010066"/>
</svg>

<svg width="21" height="21" fill="none" xmlns="http://www.w3.org/2000/svg"><path d="M14.438 8.531a.656.656 0 0 1 .656-.656h1.312a.656.656 0 0 1 .657.656v1.313a.656.656 0 0 1-.657.656h-1.312a.656.656 0 0 1-.656-.656V8.53Zm-3.938 0a.656.656 0 0 1 .656-.656h1.313a.656.656 0 0 1 .656.656v1.313a.656.656 0 0 1-.656.656h-1.313a.656.656 0 0 1-.656-.656V8.53ZM3.937 12.47a.656.656 0 0 1 .657-.656h1.312a.656.656 0 0 1 .657.656v1.312a.656.656 0 0 1-.657.656H4.594a.656.656 0 0 1-.657-.656V12.47Zm3.938 0a.656.656 0 0 1 .656-.656h1.313a.656.656 0 0 1 .656.656v1.312a.656.656 0 0 1-.656.656H8.53a.656.656 0 0 1-.656-.656V12.47Z" fill="#010066"/><path d="M4.594 0a.656.656 0 0 1 .656.656v.656h10.5V.656a.656.656 0 1 1 1.313 0v.656h1.312A2.625 2.625 0 0 1 21 3.938v14.438A2.625 2.625 0 0 1 18.375 21H2.625A2.625 2.625 0 0 1 0 18.375V3.937a2.625 2.625 0 0 1 2.625-2.624h1.313V.655A.656.656 0 0 1 4.593 0ZM1.312 5.25v13.125a1.313 1.313 0 0 0 1.313 1.313h15.75a1.313 1.313 0 0 0 1.313-1.313V5.25H1.313Z" fill="#010066"/></svg>
